assets/icons/phone.svg

<?xml version="1.0" encoding="UTF-8"?>
<svg width="19px" height="19px" viewBox="0 0 19 19" version="1.1" xmlns="http://www.w3.org/2000/svg" xmlns:xlink="http://www.w3.org/1999/xlink">
    <!-- Generator: Sketch 64 (93537) - https://sketch.com -->
    <title>phone</title>
    <desc>Created with Sketch.</desc>
    <g id="Page-1" stroke="none" stroke-width="1" fill="none" fill-rule="evenodd">
        <g id="Daxil-ol---Qeydiyyat" transform="translate(-810.000000, -66.000000)" fill="#CFD9E0" fill-rule="nonzero">
            <g id="HEADER">
                <g id="phone" transform="translate(810.000000, 66.000000)">
                    <path d="M17.4712488,12.4894581 C16.3011576,12.4894581 15.1550739,12.3067586 14.0678621,11.9473498 C13.537734,11.7646502 12.9367069,11.9054187 12.5873128,12.2608498 L10.4338547,13.8871749 C7.96390148,12.5693424 6.38250246,10.9889261 5.08067488,8.53497783 L6.66305665,6.43243596 C7.06140148,6.03310837 7.20418227,5.45103448 7.03346305,4.90494828 C6.67302463,3.81272906 6.48934236,2.66561576 6.48934236,1.49753695 C6.48934236,0.67187931 5.81746305,0 4.99180542,0 L1.49753695,0 C0.67187931,0 0,0.67187931 0,1.49753695 C0,11.1306773 7.83810837,18.9687857 17.4712488,18.9687857 C18.2969064,18.9687857 18.9687857,18.2969064 18.9687857,17.4712488 L18.9687857,13.9869951 C18.9687857,13.1613374 18.2969064,12.4894581 17.4712488,12.4894581 Z M17.9705369,17.4712488 C17.9705369,17.7467956 17.7458128,17.9704433 17.4712488,17.9704433 C8.38817241,17.9704433 0.998342365,10.5806133 0.998342365,1.49753695 C0.998342365,1.22199015 1.22297291,0.998342365 1.49753695,0.998342365 L4.99180542,0.998342365 C5.26636946,0.998342365 5.491,1.22199015 5.491,1.49753695 C5.491,2.77245567 5.69068719,4.02439655 6.08201232,5.21142857 C6.13990148,5.39810591 6.09300985,5.5908202 5.91031034,5.78049261 L4.09328325,8.1865197 C3.97848768,8.33926847 3.96051724,8.54391626 4.04737438,8.71365271 C5.52792365,11.6218695 7.32599754,13.4209261 10.2551798,14.9214581 C10.4238867,15.009298 10.6305468,14.9913276 10.7832956,14.8755493 L13.2412685,13.0126133 C13.375064,12.88083 13.5717094,12.8349212 13.7494483,12.8937931 C14.9435,13.2881601 16.1954409,13.4878005 17.4713424,13.4878005 C17.7459064,13.4878005 17.9705369,13.7114483 17.9705369,13.9869951 L17.9705369,17.4712488 L17.9705369,17.4712488 Z" id="Shape"></path>
                </g>
            </g>
        </g>
    </g>
</svg>

<svg width="19" height="19" xmlns="http://www.w3.org/2000/svg"><path d="M17.471 12.49c-1.17 0-2.316-.183-3.403-.543-.53-.182-1.131-.042-1.48.314l-2.154 1.626C7.964 12.57 6.383 10.99 5.08 8.535l1.582-2.103c.398-.399.541-.981.37-1.527a10.857 10.857 0 01-.544-3.407A1.5 1.5 0 004.992 0H1.498A1.5 1.5 0 000 1.498c0 9.633 7.838 17.47 17.471 17.47a1.5 1.5 0 001.498-1.497v-3.484a1.5 1.5 0 00-1.498-1.498zm.5 4.981a.5.5 0 01-.5.5C8.388 17.97.998 10.58.998 1.497a.5.5 0 01.5-.5h3.494a.5.5 0 01.499.5c0 1.274.2 2.526.591 3.713.058.187.011.38-.172.57L4.093 8.186a.5.5 0 00-.046.527c1.48 2.908 3.279 4.707 6.208 6.207.169.088.376.07.528-.045l2.458-1.863a.5.5 0 01.508-.12c1.194.395 2.446.595 3.722.595a.5.5 0 01.5.499v3.484z" fill="#CFD9E0" fill-rule="nonzero"/></svg>
